X:1
T:The Well-Tempered Clavier Part I Fuga
T:BWV 850
T:Johann Sebastian Bach
%%score { ( 1 3 ) | ( 2 4 ) }
L:1/8
Q:1/4=65
M:4/4
K:D
V:1 treble nm="Harp"
V:3 treble 
V:2 bass 
V:4 bass 
V:1
 z8 | z2 A,/4B,/4C/4D/4C/4B,/4C/4A,/4 F>F E>D | C2 F>F B,-B,/4B,/4C/4D/4 E/D/E/C/ | %3
 z2 D/4E/4F/4G/4F/4E/4F/4D/4 B>B A>G | F>^G A/4B/4c/4d/4c/4B/4c/4A/4 f>f e>d | %5
 c-c/4e/4f/4g/4 a>a a-a/4d/4e/4f/4 g>g | g2 f>e d>e d/4c/4B/4c/4d/4c/4c/ | %7
 c2 B/4c/4d/4e/4d/4c/4d/4B/4 g>g f>e | d2 b/a/b/^g/ g/f/g/e/ e/d/e/c/ | %9
 dc a/=g/a/f/ f/e/f/d/ d/=c/d/B/ | B2 G/4A/4B/4=c/4B/4A/4B/4G/4 e>e d>c | B>c d4 c2 | %12
 d2 d/4e/4f/4g/4f/4e/4f/4d/4 b>b a>g | f-f/4d/4e/4f/4 g>g g>a f>f | f3/2e/4^d/4 e2- e>d e>f | %15
 B3/2=c/4A/4 B>c G2 F2 | E/4F/4G/4A/4G/4F/4G/4E/4 g z z4 | A/4B/4c/4d/4c/4B/4c/4A/4 f z z4 | %18
 G/4A/4B/4=c/4B/4A/4B/4G/4 e z z4 | F/4G/4A/4B/4A/4G/4A/4F/4 d>d d>e d/4c/4d/4c/4d/4c/4d/4e/4 | %20
 f2 b/a/b/g/ g/f/g/e/ e/d/e/c/ | c2 d>d d>e d/4c/4B/4c/4d/4c/4d/ | %22
 d2 B/4c/4d/4e/4d/4c/4d/4B/4 e2 A/4B/4c/4d/4c/4B/4c/4A/4 | %23
 d2 G/4A/4B/4=c/4B/4A/4B/4G/4 ^c/4d/4e/4f/4e/4d/4e/4c/4 f/4g/4a/4b/4a/4g/4a/4f/4 | %24
 b>c d>e f>F[Q:1/4=64] G>A | %25
[Q:1/4=60] B>B[Q:1/4=55] c>d[Q:1/4=52] F2[Q:1/4=50] E2[Q:1/4=57][Q:1/4=53][Q:1/4=48][Q:1/4=46][Q:1/4=44] | %26
[Q:1/4=55] D8 |] %27
V:2
 z2 D,/4E,/4F,/4G,/4F,/4E,/4F,/4D,/4 B,>B, A,>G, | F,>G, F,>E, D,2 E,2 | %2
 A,,-A,,/4E,/4F,/4G,/4 A,4 G,2- | G,3/2F,/4E,/4 F,>D, G,>E, A,>A,, | z2 C2 B,4 | %5
 A,2[I:staff -1] F/4G/4A/4B/4A/4G/4A/4F/4 B2 E/4F/4G/4A/4G/4F/4G/4E/4 | A2 A>G F>G E2 | %7
 D2[I:staff +1] D2 C4 | B,2 z2[I:staff -1] B>^G G>E | E2[I:staff +1] z2[I:staff -1] A>F F>D | %10
 D2[I:staff +1] z2 z4 | G,>A, B,>A, G,>E, A,>A,, | %12
 B,,/4C,/4D,/4E,/4D,/4C,/4D,/4B,,/4 B,>A, G,>E, A,>A,, | %13
 z2 G,/4A,/4B,/4=C/4B,/4A,/4B,/4G,/4 E>E D>C | B,2[I:staff -1] G2 F4- | %15
 F2 E>[I:staff +1]F, G,>A, B,>A, | G,2 z2 B,>G, G,>E, | E,2 z2 A,>F, F,>D, | D,2 z2 G,>E, E,>C, | %19
 C,2 z2 z2 A,/4B,/4C/4D/4C/4B,/4C/4A,/4 | D2 z2[I:staff -1] B>G G>E | E2 F>F F>G E2 | %22
 F2[I:staff +1] z2[I:staff -1] E2[I:staff +1] z2 |[I:staff -1] D2[I:staff +1] z2 z4 | %24
 z3/2[I:staff -1] E/ F>G A>A, B,>=C | D>G G>A A,2 G,2 | F,8 |] %27
V:3
 x8 | x8 | x8 | A,2 D2- D2 C2 | D2 A2- A2 ^G2 | A2 c2 d2 d2 | c-c/4e/4d/4c/4 d>c B2 A2 | %7
 A2 B2- B2 ^A2 | B2 z2 d>B B>A | A2 z2 =c>A A>G | G2 z2 z4 | z2 D/4E/4F/4G/4F/4E/4F/4D/4 B>B A>G | %12
 F>A d2- d2 =c2- | c2 B2 A4 | G2 B2 A4- | A2 G>E E2 ^D2 | E2 z2[I:staff +1] E>C C>A, | %17
 A,2[I:staff -1] z2[I:staff +1] D>B, B,>G, | G,2[I:staff -1] z2[I:staff +1] C>A, A,>F, | %19
 F,2 B,/4C/4D/4E/4D/4C/4D/4B,/4[I:staff -1] G4 | F2 z2 d>B B>A | A2 A>A B>B A2 | A2 z2 B2 z2 | %23
 A2 z2 z4 | z3/2 A/ A>c d>D D>F | G>D E>F D2 C2 | A,8 |] %27
V:4
 x8 | x8 | x8 | x8 | D,>E, F,>E, D,>B,, E,2 | A,,2 z2 z4 | %6
 z2 D,,/4E,,/4F,,/4G,,/4F,,/4E,,/4F,,/4D,,/4 B,,>B,, A,,>G,, | %7
 F,,-F,,/4D,/4E,/4F,/4 G,>F, E,>C, F,2 | B,,/4C,/4D,/4E,/4D,/4C,/4D,/4B,,/4 ^G, z z4 | %9
 A,,/4B,,/4C,/4D,/4C,/4B,,/4C,/4A,,/4 F, z z4 | %10
 G,,/4A,,/4B,,/4=C,/4B,,/4A,,/4B,,/4G,,/4 E,>D, C,2 D,2 | x8 | x8 | D,2 E,2 =C>A, D>D, | %14
 G,2 E,,/4F,,/4G,,/4A,,/4G,,/4F,,/4G,,/4E,,/4 =C,>C, B,,>A,, | G,,>F,, G,,>A,, B,,4 | %16
 E,2 B,/A,/B,/G,/ G,/F,/G,/E,/ E,/D,/E,/C,/ | C,2 A,/G,/A,/F,/ F,/E,/F,/D,/ D,/C,/D,/B,,/ | %18
 B,,2 G,/F,/G,/E,/ E,/D,/E,/C,/ C,/B,,/C,/A,,/ | A,,2 z2 E,/4F,/4G,/4A,/4G,/4F,/4G,/4E,/4 A,2 | %20
 D,/4E,/4F,/4G,/4F,/4E,/4F,/4D,/4 G, z z4 | %21
 [G,,G,]2 F,/4G,/4A,/4G,/4F,/4E,/4D,/4C,/4 B,,/4C,/4D,/4C,/4B,,/4A,,/4B,,/4G,,/4 A,,>A,, | %22
 A,,D,,/4D,/4E,/4F,/4 G,2 C,/4D,/4E,/4F,/4E,/4D,/4E,/4C,/4 F,2 | %23
 B,,/4C,/4D,/4E,/4D,/4C,/4D,/4B,,/4 E,/4F,/4G,/4A,/4G,/4F,/4G,/4E,/4 A,/4B,/4C/4D/4C/4B,/4C/4A,/4 D/4E/4F/4G/4F/4E/4F/4D/4 | %24
 G>G, F,>E, D,>=C, B,,>A,, | G,,>F,, E,,>D,, A,,4 | D,,8 |] %27

